**kern	**kern
*part1	*part1
*staff2	*staff1
*I"Piano	*
*clefF4	*clefC1
*k[f#]	*k[f#]
*M6/8	*M6/8
=1	=1
8r	8g 8b
=	=
4E	8.gL 8.b
.	16aK 16cc
8r	8gJ 8b
4E	(8ccL 8ee
.	8b) 8dd
8r	8aJ 8cc
=	=
4E	(8aL 8cc
.	8g) 8b
8r	8gJ 8b
4E	4g 4b
8r	16bLL
.	16gJJ
=	=
4BB	4d#X 4f#
8r	8e 8g
4BB	4f# 4a
8r	8g 8b
=	=
[4.E	(4.f# 4.a
8E]	8e) 8g
8r	8r
8r	8g 8b
=	=
4E	8.aL 8.cc
.	16gK 16b
8r	8aJ 8cc
4E	8ccL 8ee
.	8b 8dd
8r	8aJ 8cc
=	=
4E	8aL 8cc
.	8g 8b
8r	8gJ 8b
4E	4g 4b
8r	8g 8b
=	=
*-	*-
!!!system-decoration: {(s1,s2)}
